X:4
T:No.104 The Farther in the Deeper
M:6/8
L:1/8
C:jig(march)
K:G
ABd edB|dBA A2B|GAB ded|
BGG G2g|fed efg|aAA e2a|
g2e dBd|[1e2A A2e:|[2e2A A2g||
ege ege|dBA A2B|ded dgd|BGG G2g|
fed efg|aAA e2a|g2e dBd|e2A A3||
